components/branding/logo3.svg

<svg viewBox="58.365 366.661 111.208 29.883" xmlns="http://www.w3.org/2000/svg">
  <g transform="translate(89.984 354.113) scale(.3334)" style="fill:#3498db">
    <path d="m58.941 38.928.038.037a2.801 2.801 0 0 1 0 3.96l-8.811 8.812 8.86 8.86a2.8 2.8 0 0 1 0 3.96l-.037.037a2.8 2.8 0 0 1-3.96 0l-8.861-8.86-.036.036-2.018-2.017a2.801 2.801 0 0 1 0-3.96l10.866-10.865a2.798 2.798 0 0 1 3.959 0Z"/>
    <rect transform="rotate(22 72.238 34.212)" x="75.833" y="36.455" width="5.039" height="28.932" rx="2.5" ry="2.5"/>
    <path d="m99.092 64.477.038-.037a2.801 2.801 0 0 0 0-3.96l-8.811-8.812 8.86-8.86a2.8 2.8 0 0 0 0-3.96l-.037-.037a2.8 2.8 0 0 0-3.96 0l-8.861 8.86-.036-.036-2.018 2.017a2.801 2.801 0 0 0 0 3.96l10.866 10.865a2.798 2.798 0 0 0 3.959 0Z" transform="rotate(180 91.723 51.644)"/>
  </g>
  <path d="M132.024 59.829v-29.7h13.005q5.4 0 7.965 2.115 2.565 2.115 2.565 5.985 0 2.385-1.44 4.23-1.44 1.845-4.23 2.34v.045q3.105.45 4.77 2.34 1.665 1.89 1.665 4.5 0 3.825-2.767 5.985-2.768 2.16-8.078 2.16Zm6.03-4.68h6.885q2.52 0 3.735-1.035 1.215-1.035 1.215-2.88 0-1.89-1.215-2.88t-3.735-.99h-6.885Zm0-12.555h6.165q4.905 0 4.905-3.825t-4.905-3.825h-6.165Zm23.863 17.235v-22.5h5.355l.405 4.41q.9-2.34 2.633-3.6 1.732-1.26 4.342-1.26.765 0 1.395.135t1.035.36l-.72 5.175q-.45-.18-1.102-.27-.653-.09-1.688-.09-1.35 0-2.61.653-1.26.652-2.07 1.98-.81 1.327-.81 3.352v11.655Zm29.054-22.95q3.42 0 6.008 1.395 2.587 1.395 4.05 4.005 1.462 2.61 1.462 6.3 0 3.645-1.462 6.278-1.463 2.632-4.05 4.027-2.588 1.395-6.008 1.395-3.375 0-5.985-1.395-2.61-1.395-4.072-4.027-1.463-2.633-1.463-6.278 0-3.69 1.463-6.3 1.462-2.61 4.072-4.005 2.61-1.395 5.985-1.395Zm0 4.59q-1.71 0-2.902.788-1.193.787-1.823 2.362-.63 1.575-.63 3.96t.63 3.96q.63 1.575 1.823 2.363 1.192.787 2.902.787 1.665 0 2.858-.787 1.192-.788 1.822-2.363.63-1.575.63-3.96t-.63-3.96q-.63-1.575-1.822-2.362-1.193-.788-2.858-.788Zm29.692 4.005q0-1.935-1.103-3.015-1.102-1.08-2.902-1.08-1.665 0-2.925.855-1.26.855-1.845 2.835l-5.265-1.62q.765-2.97 3.352-4.77 2.588-1.8 6.953-1.8 2.97 0 5.175.923 2.205.922 3.442 2.767 1.238 1.845 1.238 4.635v9.135q0 1.71 1.62 1.71.765 0 1.44-.225l-.36 3.825q-1.17.585-2.925.585-1.575 0-2.835-.54t-1.98-1.642q-.72-1.103-.72-2.768v-.18l1.08-.18q-.27 1.71-1.485 2.903-1.215 1.192-2.948 1.822-1.732.63-3.577.63-2.295 0-3.96-.697-1.665-.698-2.565-2.048-.9-1.35-.9-3.33 0-2.52 1.62-4.117 1.62-1.598 4.635-2.183l8.46-1.71-.045 3.825-5.4 1.08q-1.53.315-2.318.833-.787.517-.787 1.687 0 1.125.832 1.71.833.585 2.003.585.945 0 1.845-.225t1.62-.72q.72-.495 1.125-1.35.405-.855.405-2.07Zm21.72 14.805q-2.79 0-4.973-1.395-2.182-1.395-3.42-4.005-1.237-2.61-1.237-6.255 0-3.735 1.305-6.367 1.305-2.633 3.532-4.005 2.228-1.373 5.018-1.373 2.97 0 4.905 1.71t2.52 4.41l-.585.72V27.474h6.165v32.355h-5.535l-.405-6.84.72.36q-.27 2.115-1.395 3.668-1.125 1.552-2.835 2.407t-3.78.855Zm1.8-4.725q1.62 0 2.79-.832 1.17-.833 1.822-2.453.653-1.62.653-3.87 0-2.16-.63-3.667-.63-1.508-1.8-2.318t-2.745-.81q-2.52 0-3.938 1.778-1.417 1.777-1.417 5.197t1.395 5.198q1.395 1.777 3.87 1.777Zm18.18 4.275v-22.5h5.355l.405 4.41q.9-2.34 2.633-3.6 1.732-1.26 4.342-1.26.765 0 1.395.135t1.035.36l-.72 5.175q-.45-.18-1.102-.27-.653-.09-1.688-.09-1.35 0-2.61.653-1.26.652-2.07 1.98-.81 1.327-.81 3.352v11.655Zm22.397-25.74q-1.935 0-2.88-.832-.945-.833-.945-2.453 0-1.665.945-2.497.945-.833 2.88-.833t2.88.833q.945.832.945 2.497 0 1.62-.945 2.453-.945.832-2.88.832Zm3.06 3.24v22.5h-6.165v-22.5Zm15.338 22.95q-2.79 0-4.973-1.395-2.182-1.395-3.42-4.005-1.237-2.61-1.237-6.255 0-3.735 1.305-6.367 1.305-2.633 3.532-4.005 2.228-1.373 5.018-1.373 2.97 0 4.905 1.71t2.52 4.41l-.585.72V27.474h6.165v32.355h-5.535l-.405-6.84.72.36q-.27 2.115-1.395 3.668-1.125 1.552-2.835 2.407t-3.78.855Zm1.8-4.725q1.62 0 2.79-.832 1.17-.833 1.822-2.453.653-1.62.653-3.87 0-2.16-.63-3.667-.63-1.508-1.8-2.318t-2.745-.81q-2.52 0-3.938 1.778-1.417 1.777-1.417 5.197t1.395 5.198q1.395 1.777 3.87 1.777Zm38.925-23.58.72 4.41q-.18 0-.383-.022-.202-.023-.427-.023-2.025 0-3.083.923-1.057.922-1.057 2.542l-2.52-1.035q0-1.8.72-3.352.72-1.553 2.137-2.498 1.418-.945 3.398-.945h.495Zm-7.38 23.625q3.645 0 5.625 1.575t1.98 4.41q0 2.565-1.485 4.343-1.485 1.777-4.163 2.677-2.677.9-6.187.9-5.805 0-8.483-1.62-2.677-1.62-2.677-4.23 0-1.845 1.417-3.105 1.418-1.26 4.703-1.395l-.225.72q-2.34-.405-3.578-1.552-1.237-1.148-1.237-3.173 0-2.07 1.597-3.397 1.598-1.328 4.343-1.553l2.7 1.26h-.63q-1.935.135-2.723.788-.787.652-.787 1.462 0 .945.742 1.418.743.472 2.138.472Zm-4.185 9.675q2.34 0 3.847-.405 1.508-.405 2.25-1.035.743-.63.743-1.395 0-.855-.675-1.372-.675-.518-2.43-.518h-7.605q-1.08 0-1.778.54-.697.54-.697 1.485 0 1.26 1.687 1.98 1.688.72 4.658.72Zm.045-28.395q3.15 0 5.467.923 2.318.922 3.555 2.632 1.238 1.71 1.238 4.095 0 2.34-1.238 4.05-1.237 1.71-3.555 2.633-2.317.922-5.467.922-4.995 0-7.65-2.047-2.655-2.048-2.655-5.558 0-2.385 1.26-4.095t3.555-2.632q2.295-.923 5.49-.923Zm0 3.87q-1.8 0-2.97.99-1.17.99-1.17 2.745 0 1.755 1.17 2.768 1.17 1.012 2.97 1.012 1.8 0 2.947-1.012 1.148-1.013 1.148-2.768t-1.148-2.745q-1.147-.99-2.947-.99Zm26.213 19.53q-3.555 0-6.187-1.395-2.633-1.395-4.073-4.005-1.44-2.61-1.44-6.3t1.44-6.3q1.44-2.61 4.028-4.005 2.587-1.395 5.917-1.395 3.42 0 5.805 1.373 2.385 1.372 3.645 3.735 1.26 2.362 1.26 5.377 0 .9-.045 1.71-.045.81-.135 1.44h-17.955v-4.275h15.255l-2.97 1.08q0-2.835-1.282-4.365-1.283-1.53-3.623-1.53-1.71 0-2.947.81-1.238.81-1.868 2.408-.63 1.597-.63 4.027 0 2.385.698 3.938.697 1.552 1.98 2.317 1.282.765 3.082.765 1.98 0 3.195-.765 1.215-.765 1.89-2.115l4.905 1.89q-.72 1.755-2.182 3.015-1.463 1.26-3.465 1.913-2.003.652-4.298.652Zm41.881-30.15v29.7h-6.21v-29.7Zm-19.305 0v29.7h-6.21v-29.7Zm16.335 12.195v4.995h-19.44v-4.995Zm17.986 17.955q-2.25 0-4.05-.81-1.8-.81-2.857-2.587-1.058-1.778-1.058-4.613v-14.94h6.165v13.455q0 2.61 1.08 3.623 1.08 1.012 3.105 1.012.945 0 1.845-.337.9-.338 1.598-1.058.697-.72 1.102-1.867.405-1.148.405-2.723V37.329h6.165v22.5h-5.49l-.225-3.915q-1.125 2.25-3.082 3.308-1.958 1.057-4.703 1.057Zm33.478 0q-2.07 0-3.758-.877-1.687-.878-2.79-2.43-1.102-1.553-1.507-3.488l.63-.81-.36 7.155h-5.445V27.474h6.165v16.2l-.585-.945q.72-2.52 2.745-4.185 2.025-1.665 5.085-1.665 2.7 0 4.837 1.395 2.138 1.395 3.375 4.005 1.238 2.61 1.238 6.345 0 3.645-1.238 6.255-1.237 2.61-3.42 4.005-2.182 1.395-4.972 1.395Zm-1.845-4.725q2.475 0 3.892-1.777 1.418-1.778 1.418-5.198 0-3.42-1.395-5.197-1.395-1.778-3.87-1.778-1.62 0-2.79.855t-1.823 2.43q-.652 1.575-.652 3.735t.652 3.735q.653 1.575 1.845 2.385 1.193.81 2.723.81Z" transform="matrix(.3334 0 0 .35646 15.64 371.06)" style="fill:#ecf0f1;white-space:pre"/>
</svg>

<?xml version="1.0" encoding="UTF-8" standalone="no"?>
<!DOCTYPE svg PUBLIC "-//W3C//DTD SVG 1.1//EN" "http://www.w3.org/Graphics/SVG/1.1/DTD/svg11.dtd">
<svg width="100%" height="100%" viewBox="0 0 112 30" version="1.1" xmlns="http://www.w3.org/2000/svg" xmlns:xlink="http://www.w3.org/1999/xlink" xml:space="preserve" xmlns:serif="http://www.serif.com/" style="fill-rule:evenodd;clip-rule:evenodd;stroke-linejoin:round;stroke-miterlimit:2;">
    <g transform="matrix(0.3334,0,0,0.3334,31.619,-12.548)">
        <g transform="matrix(1,0,0,1,0.293112,7.70934)">
            <path d="M58.941,38.928L58.979,38.965C60.065,40.051 60.065,41.839 58.979,42.925L50.168,51.737L59.028,60.597C59.553,61.122 59.848,61.835 59.848,62.577C59.848,63.319 59.553,64.032 59.028,64.557L58.991,64.594C58.466,65.119 57.753,65.414 57.011,65.414C56.269,65.414 55.556,65.119 55.031,64.594L46.17,55.734L46.134,55.77L44.116,53.753C43.03,52.667 43.03,50.879 44.116,49.793L54.982,38.928C55.507,38.403 56.219,38.107 56.962,38.107C57.704,38.107 58.416,38.403 58.941,38.928Z" style="fill:#3498db;fill-rule:nonzero;"/>
        </g>
        <g transform="matrix(0.927184,0.374607,-0.374607,0.927184,18.3692,-16.8603)">
            <path d="M80.872,38.974L80.872,62.868C80.872,64.258 79.743,65.387 78.352,65.387C76.962,65.387 75.833,64.258 75.833,62.868L75.833,38.974C75.833,37.584 76.962,36.455 78.352,36.455C79.743,36.455 80.872,37.584 80.872,38.974Z" style="fill:#3498db;"/>
        </g>
        <g transform="matrix(-1,-7.65714e-16,7.65714e-16,-1,183.739,110.997)">
            <path d="M99.092,64.477L99.13,64.44C100.216,63.354 100.216,61.566 99.13,60.48L90.319,51.668L99.179,42.808C99.704,42.283 99.999,41.57 99.999,40.828C99.999,40.086 99.704,39.373 99.179,38.848L99.142,38.811C98.617,38.286 97.904,37.991 97.162,37.991C96.42,37.991 95.707,38.286 95.182,38.811L86.321,47.671L86.285,47.635L84.267,49.652C83.181,50.738 83.181,52.526 84.267,53.612L95.133,64.477C95.658,65.002 96.37,65.298 97.112,65.298C97.855,65.298 98.567,65.002 99.092,64.477Z" style="fill:#3498db;fill-rule:nonzero;"/>
        </g>
    </g>
    <g transform="matrix(0.3334,0,0,0.35646,-23.8499,4.399)">
        <path d="M132.024,59.829L132.024,30.129L145.029,30.129C148.629,30.129 151.284,30.834 152.994,32.244C154.704,33.654 155.559,35.649 155.559,38.229C155.559,39.819 155.079,41.229 154.119,42.459C153.159,43.689 151.749,44.469 149.889,44.799L149.889,44.844C151.959,45.144 153.549,45.924 154.659,47.184C155.769,48.444 156.324,49.944 156.324,51.684C156.324,54.234 155.402,56.229 153.557,57.669C151.712,59.109 149.019,59.829 145.479,59.829L132.024,59.829ZM138.054,55.149L144.939,55.149C146.619,55.149 147.864,54.804 148.674,54.114C149.484,53.424 149.889,52.464 149.889,51.234C149.889,49.974 149.484,49.014 148.674,48.354C147.864,47.694 146.619,47.364 144.939,47.364L138.054,47.364L138.054,55.149ZM138.054,42.594L144.219,42.594C147.489,42.594 149.124,41.319 149.124,38.769C149.124,36.219 147.489,34.944 144.219,34.944L138.054,34.944L138.054,42.594ZM161.917,59.829L161.917,37.329L167.272,37.329L167.677,41.739C168.277,40.179 169.155,38.979 170.31,38.139C171.465,37.299 172.912,36.879 174.652,36.879C175.162,36.879 175.627,36.924 176.047,37.014C176.467,37.104 176.812,37.224 177.082,37.374L176.362,42.549C176.062,42.429 175.695,42.339 175.26,42.279C174.825,42.219 174.262,42.189 173.572,42.189C172.672,42.189 171.802,42.407 170.962,42.842C170.122,43.277 169.432,43.937 168.892,44.822C168.352,45.707 168.082,46.824 168.082,48.174L168.082,59.829L161.917,59.829ZM190.971,36.879C193.251,36.879 195.254,37.344 196.979,38.274C198.704,39.204 200.054,40.539 201.029,42.279C202.004,44.019 202.491,46.119 202.491,48.579C202.491,51.009 202.004,53.102 201.029,54.857C200.054,56.612 198.704,57.954 196.979,58.884C195.254,59.814 193.251,60.279 190.971,60.279C188.721,60.279 186.726,59.814 184.986,58.884C183.246,57.954 181.889,56.612 180.914,54.857C179.939,53.102 179.451,51.009 179.451,48.579C179.451,46.119 179.939,44.019 180.914,42.279C181.889,40.539 183.246,39.204 184.986,38.274C186.726,37.344 188.721,36.879 190.971,36.879ZM190.971,41.469C189.831,41.469 188.864,41.732 188.069,42.257C187.274,42.782 186.666,43.569 186.246,44.619C185.826,45.669 185.616,46.989 185.616,48.579C185.616,50.169 185.826,51.489 186.246,52.539C186.666,53.589 187.274,54.377 188.069,54.902C188.864,55.427 189.831,55.689 190.971,55.689C192.081,55.689 193.034,55.427 193.829,54.902C194.624,54.377 195.231,53.589 195.651,52.539C196.071,51.489 196.281,50.169 196.281,48.579C196.281,46.989 196.071,45.669 195.651,44.619C195.231,43.569 194.624,42.782 193.829,42.257C193.034,41.732 192.081,41.469 190.971,41.469ZM220.663,45.474C220.663,44.184 220.295,43.179 219.56,42.459C218.825,41.739 217.858,41.379 216.658,41.379C215.548,41.379 214.573,41.664 213.733,42.234C212.893,42.804 212.278,43.749 211.888,45.069L206.623,43.449C207.133,41.469 208.25,39.879 209.975,38.679C211.7,37.479 214.018,36.879 216.928,36.879C218.908,36.879 220.633,37.187 222.103,37.802C223.573,38.417 224.72,39.339 225.545,40.569C226.37,41.799 226.783,43.344 226.783,45.204L226.783,54.339C226.783,55.479 227.323,56.049 228.403,56.049C228.913,56.049 229.393,55.974 229.843,55.824L229.483,59.649C228.703,60.039 227.728,60.234 226.558,60.234C225.508,60.234 224.563,60.054 223.723,59.694C222.883,59.334 222.223,58.787 221.743,58.052C221.263,57.317 221.023,56.394 221.023,55.284L221.023,55.104L222.103,54.924C221.923,56.064 221.428,57.032 220.618,57.827C219.808,58.622 218.825,59.229 217.67,59.649C216.515,60.069 215.323,60.279 214.093,60.279C212.563,60.279 211.243,60.047 210.133,59.582C209.023,59.117 208.168,58.434 207.568,57.534C206.968,56.634 206.668,55.524 206.668,54.204C206.668,52.524 207.208,51.152 208.288,50.087C209.368,49.022 210.913,48.294 212.923,47.904L221.383,46.194L221.338,50.019L215.938,51.099C214.918,51.309 214.145,51.587 213.62,51.932C213.095,52.277 212.833,52.839 212.833,53.619C212.833,54.369 213.11,54.939 213.665,55.329C214.22,55.719 214.888,55.914 215.668,55.914C216.298,55.914 216.913,55.839 217.513,55.689C218.113,55.539 218.653,55.299 219.133,54.969C219.613,54.639 219.988,54.189 220.258,53.619C220.528,53.049 220.663,52.359 220.663,51.549L220.663,45.474ZM242.383,60.279C240.523,60.279 238.865,59.814 237.41,58.884C235.955,57.954 234.815,56.619 233.99,54.879C233.165,53.139 232.753,51.054 232.753,48.624C232.753,46.134 233.188,44.012 234.058,42.257C234.928,40.502 236.105,39.167 237.59,38.252C239.075,37.337 240.748,36.879 242.608,36.879C244.588,36.879 246.223,37.449 247.513,38.589C248.803,39.729 249.643,41.199 250.033,42.999L249.448,43.719L249.448,27.474L255.613,27.474L255.613,59.829L250.078,59.829L249.673,52.989L250.393,53.349C250.213,54.759 249.748,55.982 248.998,57.017C248.248,58.052 247.303,58.854 246.163,59.424C245.023,59.994 243.763,60.279 242.383,60.279ZM244.183,55.554C245.263,55.554 246.193,55.277 246.973,54.722C247.753,54.167 248.36,53.349 248.795,52.269C249.23,51.189 249.448,49.899 249.448,48.399C249.448,46.959 249.238,45.737 248.818,44.732C248.398,43.727 247.798,42.954 247.018,42.414C246.238,41.874 245.323,41.604 244.273,41.604C242.593,41.604 241.28,42.197 240.335,43.382C239.39,44.567 238.918,46.299 238.918,48.579C238.918,50.859 239.383,52.592 240.313,53.777C241.243,54.962 242.533,55.554 244.183,55.554ZM286.48,30.129L286.48,59.829L280.27,59.829L280.27,30.129L286.48,30.129ZM267.175,30.129L267.175,59.829L260.965,59.829L260.965,30.129L267.175,30.129ZM283.51,42.324L283.51,47.319L264.07,47.319L264.07,42.324L283.51,42.324ZM301.496,60.279C299.996,60.279 298.646,60.009 297.446,59.469C296.246,58.929 295.293,58.067 294.589,56.882C293.883,55.697 293.531,54.159 293.531,52.269L293.531,37.329L299.696,37.329L299.696,50.784C299.696,52.524 300.056,53.732 300.776,54.407C301.496,55.082 302.531,55.419 303.881,55.419C304.511,55.419 305.126,55.307 305.726,55.082C306.326,54.857 306.858,54.504 307.324,54.024C307.788,53.544 308.156,52.922 308.426,52.157C308.696,51.392 308.831,50.484 308.831,49.434L308.831,37.329L314.996,37.329L314.996,59.829L309.506,59.829L309.281,55.914C308.531,57.414 307.503,58.517 306.199,59.222C304.893,59.927 303.326,60.279 301.496,60.279ZM334.974,60.279C333.594,60.279 332.341,59.987 331.216,59.402C330.091,58.817 329.161,58.007 328.426,56.972C327.691,55.937 327.189,54.774 326.919,53.484L327.549,52.674L327.189,59.829L321.744,59.829L321.744,27.474L327.909,27.474L327.909,43.674L327.324,42.729C327.804,41.049 328.719,39.654 330.069,38.544C331.419,37.434 333.114,36.879 335.154,36.879C336.954,36.879 338.566,37.344 339.991,38.274C341.416,39.204 342.541,40.539 343.366,42.279C344.191,44.019 344.604,46.134 344.604,48.624C344.604,51.054 344.191,53.139 343.366,54.879C342.541,56.619 341.401,57.954 339.946,58.884C338.491,59.814 336.834,60.279 334.974,60.279ZM333.129,55.554C334.779,55.554 336.076,54.962 337.021,53.777C337.966,52.592 338.439,50.859 338.439,48.579C338.439,46.299 337.974,44.567 337.044,43.382C336.114,42.197 334.824,41.604 333.174,41.604C332.094,41.604 331.164,41.889 330.384,42.459C329.604,43.029 328.996,43.839 328.561,44.889C328.126,45.939 327.909,47.184 327.909,48.624C327.909,50.064 328.126,51.309 328.561,52.359C328.996,53.409 329.611,54.204 330.406,54.744C331.201,55.284 332.109,55.554 333.129,55.554Z" style="fill:#ecf0f1;fill-rule:nonzero;"/>
    </g>
</svg>
